X:87
T:Dolly Varden
B:Terry "Cuz" Teahan "Sliabh Luachra on Parade" 1980
Z:Patrick Cavanagh
M:4/4
L:1/8
R:Barndance
K:A
A>B | c3 B c4 | B>cB>A F2E>F | A3F A3B | c2 e2 e2 f2 | 
c>ee>c e2 c2 | B>cB>A F2E>F | A3B c2e>c | B2 A2 [1 A2 :|[2 A4
|: e3c e2c>B | A>Bc>B A>Bc>e | f2a>f f2a>f | e3c c>BA>B | 
c3B c4 | B>cB>A F2E>F | A3B c2e>c | B2 A2 A4 :|| 

